lib/preview/nrk-logo-preview-nrk-tegnspraak-on-light.svg

<svg width="122" height="24" viewBox="0 0 122 24" fill="none" xmlns="http://www.w3.org/2000/svg">
<path d="M-3.05176e-05 18.0029V6.00396H3.93716V18.0029H-3.05176e-05ZM9.29378 7.91365L11.558 18.0029H7.24914L4.54546 6.00396H6.96215C7.51632 5.99677 8.05403 6.19212 8.47447 6.55326C8.89559 6.89925 9.18492 7.37957 9.29378 7.91365ZM12.1495 18.0029V6.00396H16.0867V18.0029H12.1495ZM19.0604 10.567C18.6362 10.5711 18.2187 10.4601 17.8525 10.2458C17.4912 10.037 17.1911 9.73683 16.9822 9.37547C16.7677 9.0092 16.6567 8.59163 16.6609 8.16719C16.6561 7.74533 16.7672 7.33025 16.9822 6.9673C17.1933 6.60986 17.4931 6.31296 17.8525 6.10539C18.2188 5.89137 18.6362 5.78038 19.0604 5.78425C19.4822 5.77971 19.8971 5.8908 20.2602 6.10539C20.616 6.31478 20.9126 6.61143 21.122 6.9673C21.3368 7.33035 21.4479 7.74536 21.4433 8.16719C21.4472 8.5916 21.3362 9.0091 21.122 9.37547C20.9148 9.73524 20.6179 10.0351 20.2602 10.2458C19.8971 10.4608 19.4819 10.572 19.0599 10.567H19.0604ZM22.0516 18.0029V6.00396H25.9891V18.0029H22.0516ZM30.9737 12.5611C30.9848 12.5727 31.0692 12.7108 31.2271 12.9751C31.385 13.2395 31.5906 13.5776 31.8439 13.9892C32.0974 14.4006 32.3649 14.8371 32.6463 15.2989C32.9277 15.7606 33.1926 16.1972 33.4408 16.6086C33.6881 17.0201 33.9697 17.4848 34.2857 18.0029H29.9598C29.6893 17.5635 29.4441 17.1663 29.2244 16.8114C29.0048 16.4565 28.7713 16.0735 28.5238 15.6622C28.2758 15.2514 28.0306 14.8514 27.7882 14.4623C27.5458 14.0733 27.3375 13.7325 27.1632 13.4399C26.9882 13.1472 26.867 12.95 26.7996 12.8484C26.6325 12.5963 26.5336 12.3052 26.5126 12.0034C26.5294 11.7138 26.6226 11.4338 26.7827 11.192C26.8503 11.0793 26.9743 10.8793 27.1545 10.592C27.3347 10.3047 27.546 9.96392 27.7882 9.56959C28.0304 9.17526 28.2756 8.77247 28.5238 8.36124C28.772 7.95001 29.0055 7.5641 29.2244 7.20357C29.4445 6.84342 29.6896 6.44345 29.9598 6.00368H34.2857L30.9396 11.4624C30.8361 11.6244 30.7777 11.8112 30.7706 12.0034C30.7817 12.2052 30.8522 12.3992 30.9731 12.5611H30.9737Z" fill="#0A2343"/>
<path d="M38.1276 7.48598H41.9989V18.0011H43.774V7.48598H47.6287V5.9983H38.1276V7.48598Z" fill="#1767CE"/>
<path d="M54.485 10.4698C54.1605 10.0492 53.7323 9.72004 53.2424 9.51463C52.6981 9.29246 52.1144 9.18318 51.5265 9.19342C50.9344 9.18336 50.3467 9.29858 49.8022 9.53153C49.3069 9.7484 48.8653 10.0716 48.5089 10.4782C48.1417 10.9054 47.8655 11.403 47.6972 11.9405C47.5045 12.5558 47.4105 13.1977 47.4185 13.8424C47.3946 14.657 47.5655 15.4655 47.917 16.2007C48.2383 16.8378 48.7573 17.3538 49.3962 17.6715C50.146 18.0246 50.9686 18.1955 51.797 18.1702C52.1955 18.1736 52.5937 18.1482 52.9886 18.0941C53.3186 18.0466 53.6439 17.9702 53.9606 17.8659C54.2748 17.7605 54.5801 17.6305 54.8738 17.477L54.9921 16.1753C54.7778 16.2542 54.5608 16.3331 54.341 16.412C54.1212 16.4909 53.893 16.5613 53.6563 16.6233C53.4176 16.6859 53.1747 16.7311 52.9294 16.7586C52.6826 16.7867 52.4343 16.8008 52.1858 16.8008C51.7419 16.808 51.2989 16.7597 50.8669 16.6571C50.5185 16.5739 50.1962 16.4055 49.929 16.1669C49.6587 15.9097 49.4606 15.5862 49.3542 15.2286C49.2437 14.8665 49.1817 14.4913 49.1699 14.1129H55.2792C55.3624 13.4137 55.331 12.7057 55.1863 12.0166C55.0674 11.4563 54.8281 10.9284 54.485 10.4698ZM50.2248 10.8755C50.6214 10.6347 51.0794 10.5143 51.5432 10.5289C52.0075 10.5057 52.4661 10.6397 52.8449 10.9093C53.1816 11.1779 53.422 11.5488 53.5295 11.9659C53.6138 12.2743 53.6554 12.5929 53.653 12.9126H49.2068C49.2384 12.5755 49.3105 12.2435 49.4215 11.9236C49.5659 11.495 49.8484 11.1263 50.2248 10.8755Z" fill="#1767CE"/>
<path d="M62.8106 9.41318C62.5523 9.34249 62.2897 9.28886 62.0245 9.2526C61.7218 9.2119 61.4167 9.19213 61.1113 9.19342C60.5598 9.19116 60.0135 9.30042 59.5053 9.51463C58.996 9.73021 58.5337 10.0432 58.1444 10.436C57.7294 10.8595 57.4096 11.3667 57.2062 11.9236C56.9703 12.5764 56.8557 13.2668 56.8681 13.9607C56.8496 14.7242 56.9965 15.4825 57.2989 16.1838C57.5639 16.7835 58.0027 17.2899 58.5586 17.6376C59.1668 17.9964 59.8643 18.1752 60.57 18.1533C61.1901 18.151 61.804 18.0305 62.3789 17.7982C62.7225 17.6583 63.0464 17.4743 63.3425 17.2508V17.7137C63.3495 18.0946 63.2953 18.4741 63.1822 18.8379C63.0846 19.1431 62.9167 19.421 62.6919 19.6494C62.4497 19.882 62.1533 20.0505 61.8295 20.1396C61.4084 20.2553 60.9728 20.3094 60.5362 20.3002C60.1889 20.2997 59.8419 20.28 59.4968 20.2411C59.1344 20.2001 58.7755 20.1323 58.4231 20.0382C58.0602 19.9415 57.7043 19.8201 57.358 19.6747L57.544 21.1624C57.8549 21.2885 58.1741 21.3931 58.4994 21.4752C58.8415 21.5615 59.1887 21.6265 59.5388 21.6696C59.909 21.7151 60.2816 21.7377 60.6546 21.7372C61.4866 21.7633 62.3136 21.5984 63.072 21.2554C63.6879 20.9686 64.2033 20.5033 64.5512 19.9199C64.8918 19.3202 65.0641 18.6398 65.0502 17.9504V9.19342L63.3966 9.61888C63.2058 9.53807 63.01 9.46936 62.8106 9.41318ZM63.123 16.1838C62.9136 16.3055 62.6962 16.4128 62.4722 16.505C62.2749 16.586 62.0714 16.6511 61.8636 16.6994C61.6612 16.7452 61.4543 16.7679 61.2468 16.767C60.739 16.7854 60.2351 16.6718 59.7842 16.4374C59.3914 16.2131 59.0873 15.8611 58.9224 15.4399C58.7186 14.8916 58.6238 14.3087 58.6434 13.7241C58.6358 13.2575 58.7013 12.7926 58.8375 12.3463C58.9483 11.9795 59.1389 11.6417 59.3957 11.3573C59.6457 11.0929 59.9517 10.8878 60.2914 10.7572C60.6773 10.6109 61.0875 10.5392 61.5001 10.5458C61.7665 10.5456 62.0324 10.5683 62.295 10.6135C62.5638 10.6609 62.8292 10.7259 63.0895 10.8079C63.1723 10.8338 63.2586 10.8682 63.3431 10.8997V16.0536C63.2687 16.0981 63.1929 16.1438 63.123 16.1838Z" fill="#1767CE"/>
<path d="M74.2975 9.54844C73.7952 9.29476 73.2368 9.17261 72.6746 9.19342C72.1839 9.19438 71.6963 9.27137 71.2291 9.42164C70.7478 9.57499 70.2898 9.79401 69.8683 10.0725C69.7051 10.1798 69.5482 10.2979 69.3949 10.4191V9.21033L67.6706 9.46391V18.0011H69.3949V11.5805C69.5618 11.4827 69.734 11.3941 69.9105 11.315C70.148 11.2099 70.3906 11.1168 70.6375 11.0361C70.8749 10.9585 71.1179 10.8992 71.3644 10.8586C71.5963 10.82 71.8309 10.8002 72.066 10.7994C72.3418 10.793 72.6166 10.836 72.8774 10.9262C73.0926 11.0037 73.2845 11.1346 73.4353 11.3066C73.5905 11.4931 73.7005 11.7129 73.7565 11.949C73.8285 12.2478 73.8626 12.5545 73.8579 12.8619V18.0011H75.5823V12.5069C75.6048 11.866 75.4954 11.2273 75.2611 10.6304C75.0701 10.172 74.7308 9.79097 74.2975 9.54844Z" fill="#1767CE"/>
<path d="M83.4768 14.1129C83.3037 13.9295 83.1043 13.7728 82.8851 13.648C82.6582 13.518 82.4205 13.4078 82.1748 13.3183C81.9945 13.262 81.817 13.2028 81.6423 13.1408C81.4676 13.0788 81.2929 13.0225 81.1182 12.9718C80.9435 12.921 80.7745 12.8675 80.611 12.8112C80.4578 12.759 80.3082 12.6969 80.1631 12.6252C80.0241 12.5514 79.8912 12.4666 79.7658 12.3716C79.65 12.2843 79.5524 12.1752 79.4787 12.0504C79.404 11.9222 79.366 11.7761 79.3685 11.6278C79.364 11.4648 79.4051 11.3038 79.4871 11.1629C79.5754 11.0245 79.6976 10.911 79.8421 10.8332C80.019 10.7361 80.2101 10.6676 80.4085 10.6304C80.6563 10.5828 80.9084 10.5602 81.1608 10.5627C81.2845 10.5627 81.4197 10.5687 81.5665 10.5796C81.7133 10.5906 81.8733 10.6109 82.0483 10.6388C82.2233 10.6667 82.3974 10.7039 82.5721 10.7487C82.7467 10.7935 82.9243 10.8445 83.1049 10.9009C83.272 10.9522 83.4357 11.0143 83.5948 11.0868L83.7135 9.71748C83.4991 9.62731 83.2878 9.54843 83.0795 9.48081C82.8713 9.41334 82.6597 9.3569 82.4455 9.31175C82.2364 9.26744 82.0247 9.2364 81.8116 9.21878C81.6029 9.20188 81.3972 9.19341 81.1946 9.19341C80.7276 9.18864 80.2618 9.2426 79.8083 9.35402C79.4204 9.44822 79.0516 9.60833 78.7179 9.82737C78.4153 10.0275 78.1682 10.3008 77.9994 10.6219C77.8227 10.9758 77.7357 11.3676 77.7459 11.763C77.7407 12.0478 77.7866 12.3312 77.8814 12.5998C77.9615 12.8253 78.0818 13.0343 78.2364 13.2169C78.3867 13.3894 78.5602 13.5401 78.752 13.6649C78.9517 13.7959 79.1641 13.9063 79.386 13.9945C79.5097 14.0396 79.6394 14.0847 79.7748 14.1298C79.9102 14.1749 80.0427 14.2171 80.1721 14.2566C80.3014 14.2963 80.4282 14.3355 80.5522 14.3749C80.6761 14.4144 80.7973 14.4538 80.9156 14.4932C81.034 14.5327 81.1495 14.5693 81.2625 14.6031C81.4136 14.6567 81.5604 14.7217 81.7017 14.7975C81.8258 14.8632 81.9422 14.9426 82.0486 15.0342C82.1421 15.1159 82.2169 15.2168 82.268 15.33C82.3199 15.4471 82.3459 15.5739 82.3444 15.702C82.3504 15.827 82.3285 15.9519 82.2802 16.0674C82.2319 16.1829 82.1584 16.2862 82.0652 16.3697C81.8559 16.5446 81.6059 16.6638 81.3383 16.7163C81.0247 16.7855 80.7045 16.8195 80.3834 16.8177C80.1826 16.8163 79.9822 16.8022 79.7832 16.7755C79.5635 16.7477 79.3324 16.7082 79.0901 16.6571C78.8478 16.606 78.5998 16.5441 78.346 16.4712C78.0926 16.3981 77.8363 16.3164 77.5771 16.226L77.6447 17.663C77.9374 17.7644 78.205 17.8461 78.4477 17.9081C78.6904 17.9701 78.9214 18.0236 79.1408 18.0687C79.3526 18.1126 79.5673 18.1409 79.7832 18.1532C79.9916 18.1645 80.2029 18.1701 80.4172 18.1701C80.8886 18.1726 81.3589 18.1244 81.8201 18.0265C82.226 17.9439 82.6148 17.7924 82.9696 17.5785C83.2894 17.3833 83.5542 17.1098 83.7391 16.7839C83.9326 16.4262 84.0287 16.024 84.0178 15.6174C84.0248 15.3208 83.9761 15.0255 83.8741 14.7468C83.7833 14.5121 83.6484 14.2969 83.4768 14.1129Z" fill="#1767CE"/>
<path d="M92.5634 9.72593C91.9567 9.35444 91.2542 9.16927 90.5432 9.19341C90.1212 9.19547 89.7011 9.24941 89.2922 9.35401C88.8503 9.46631 88.4243 9.63387 88.0243 9.85273C87.9449 9.89583 87.8663 9.94373 87.7877 9.99219V9.21032L86.0633 9.48081V21.5512H87.7877V17.7664C87.7992 17.7712 87.8099 17.7765 87.8215 17.7813C88.1338 17.9111 88.4599 18.0047 88.7935 18.0603C89.1874 18.1252 89.5861 18.1563 89.9853 18.1532C90.7465 18.1663 91.497 17.9736 92.1577 17.5954C92.8064 17.2108 93.3337 16.6513 93.6791 15.9809C94.0785 15.1817 94.2731 14.2958 94.2455 13.4028C94.2613 12.6478 94.1143 11.8983 93.8147 11.2052C93.55 10.6011 93.1152 10.0871 92.5634 9.72593ZM92.1154 15.3808C91.9123 15.8298 91.572 16.2027 91.1433 16.4458C90.6669 16.6953 90.1341 16.8176 89.5965 16.8008C89.339 16.8009 89.0818 16.7812 88.8273 16.7416C88.5603 16.699 88.2973 16.634 88.0412 16.5472C87.9601 16.5191 87.8722 16.4869 87.7877 16.4559V11.1209C87.8102 11.1105 87.833 11.0969 87.8553 11.0868C88.1029 10.9741 88.3339 10.8783 88.5484 10.7994C88.7512 10.7237 88.9606 10.6671 89.1739 10.6304C89.3638 10.5977 89.556 10.5807 89.7487 10.5796C90.2698 10.5624 90.787 10.6757 91.2532 10.9093C91.6609 11.1313 91.9801 11.4863 92.1577 11.9152C92.3727 12.4638 92.4735 13.0506 92.4538 13.6395C92.4717 14.2378 92.3561 14.8327 92.1154 15.3808Z" fill="#1767CE"/>
<path d="M99.8744 9.31964C99.5583 9.40437 99.2565 9.5354 98.9787 9.70847C98.6902 9.88844 98.4235 10.1012 98.1839 10.3424C98.1441 10.3821 98.1053 10.4269 98.0658 10.4689V9.20975L96.3412 9.46334V18.0005H98.0658V11.6137C98.194 11.5242 98.3265 11.4413 98.4631 11.3652C98.6322 11.2721 98.8073 11.1902 98.9871 11.1201C99.1616 11.0524 99.3392 10.9933 99.5197 10.9426C99.7051 10.8909 99.8944 10.8542 100.086 10.8327C100.291 10.8099 100.497 10.8042 100.703 10.8158L100.906 9.22666C100.559 9.20176 100.211 9.23317 99.8744 9.31964Z" fill="#1767CE"/>
<path d="M109.798 16.9361C109.675 16.9474 109.55 16.9287 109.435 16.8816C109.321 16.8345 109.219 16.7604 109.139 16.6656C108.982 16.3947 108.917 16.0805 108.953 15.7696L108.987 12.2871C108.99 11.922 108.945 11.5581 108.851 11.2052C108.769 10.8956 108.632 10.6035 108.446 10.343C108.258 10.0881 108.019 9.87514 107.744 9.71747C107.425 9.53639 107.08 9.40526 106.721 9.32865C106.283 9.23387 105.835 9.18852 105.386 9.19341C105.03 9.19326 104.674 9.21584 104.321 9.26103C103.987 9.30303 103.657 9.36799 103.332 9.45544C103.031 9.53716 102.734 9.63593 102.444 9.75128L102.241 11.1882C102.523 11.0868 102.791 11.0023 103.044 10.9347C103.298 10.867 103.543 10.8107 103.78 10.7656C104.012 10.7213 104.246 10.6903 104.481 10.6726C104.712 10.6557 104.94 10.6473 105.166 10.6473C105.511 10.64 105.855 10.6798 106.189 10.7656C106.432 10.8266 106.656 10.9488 106.84 11.1206C107.003 11.2878 107.119 11.4947 107.178 11.7208C107.25 11.9995 107.284 12.2866 107.279 12.5745L107.277 12.9988L105.301 13.1324C104.625 13.1511 103.96 13.3004 103.34 13.5719C102.877 13.7746 102.477 14.0988 102.182 14.5101C101.932 14.8762 101.8 15.3095 101.802 15.7527C101.799 16.1685 101.9 16.5784 102.098 16.9445C102.305 17.3206 102.616 17.6288 102.994 17.832C103.455 18.0719 103.97 18.1884 104.49 18.1701C104.977 18.1813 105.461 18.1011 105.918 17.9335C106.314 17.7787 106.675 17.5491 106.983 17.2573C107.1 17.1451 107.211 17.0269 107.316 16.9031C107.349 17.0781 107.411 17.2464 107.499 17.401C107.65 17.6598 107.881 17.8617 108.158 17.9757C108.464 18.0987 108.792 18.159 109.122 18.1532C109.223 18.1532 109.322 18.1504 109.418 18.1448C109.512 18.1391 109.605 18.125 109.697 18.1025C109.787 18.0797 109.868 18.0603 109.942 18.0434C110.008 18.0286 110.073 18.0088 110.136 17.9842L110.322 16.8515C110.229 16.8836 110.133 16.9062 110.035 16.9192C109.956 16.9296 109.877 16.9353 109.798 16.9361ZM106.983 16.1753C106.8 16.3203 106.602 16.445 106.392 16.5472C106.183 16.6488 105.961 16.7227 105.733 16.767C105.496 16.8126 105.255 16.8353 105.014 16.8346C104.738 16.8425 104.464 16.7906 104.211 16.6825C104.005 16.5929 103.831 16.4425 103.712 16.2514C103.595 16.0488 103.537 15.8176 103.543 15.5836C103.527 15.3018 103.604 15.0225 103.763 14.7891C103.947 14.5743 104.196 14.4258 104.473 14.3664C104.905 14.2647 105.348 14.2192 105.792 14.2312H107.272L107.264 15.9091C107.179 16.0057 107.084 16.0948 106.983 16.1753Z" fill="#1767CE"/>
<path d="M104.397 7.84099C104.716 7.99208 105.066 8.06728 105.42 8.06075C105.782 8.06786 106.141 7.98969 106.468 7.83253C106.762 7.68927 107.011 7.46684 107.186 7.19013C107.367 6.89251 107.458 6.54916 107.448 6.20117C107.459 5.94875 107.415 5.697 107.318 5.46343C107.222 5.22987 107.076 5.02011 106.89 4.84875C106.494 4.50172 105.98 4.32015 105.453 4.34157C105.101 4.33759 104.752 4.40967 104.431 4.55289C104.129 4.68733 103.873 4.90783 103.695 5.18684C103.507 5.49711 103.413 5.85538 103.425 6.21807C103.413 6.56899 103.504 6.91568 103.687 7.21548C103.861 7.48562 104.107 7.70215 104.397 7.84099ZM104.667 5.40662C104.774 5.31202 104.899 5.23943 105.033 5.19301C105.168 5.1466 105.311 5.12726 105.453 5.13612C105.663 5.12668 105.871 5.17648 106.054 5.27982C106.201 5.37059 106.319 5.50291 106.392 5.6602C106.467 5.8303 106.505 6.01497 106.502 6.20117C106.505 6.38826 106.464 6.57354 106.383 6.74214C106.307 6.89753 106.186 7.02692 106.037 7.11406C105.852 7.21205 105.645 7.25875 105.437 7.24929C105.238 7.25516 105.042 7.21464 104.862 7.13096C104.707 7.0557 104.582 6.93068 104.507 6.77594C104.423 6.59616 104.383 6.39936 104.388 6.20117C104.378 6.05669 104.397 5.91162 104.445 5.77494C104.493 5.63827 104.569 5.51291 104.667 5.40662Z" fill="#1767CE"/>
<path d="M117.135 18.0011H119.366L115.266 13.3803L119.282 9.37937H117.169L114.276 12.5576H113.652V5.23757L111.928 5.49114V18.0011H113.652V13.8593H113.68L117.135 18.0011Z" fill="#1767CE"/>
</svg>

<svg xmlns="http://www.w3.org/2000/svg" viewBox="0 0 122 24"><path fill="#0A2343" d="M0 18.003V6.004h3.937v11.999H0Zm9.294-10.09 2.264 10.09H7.249L4.545 6.004h2.417a2.276 2.276 0 0 1 1.512.55c.422.345.71.826.82 1.36Zm2.855 10.09V6.004h3.938v11.999h-3.938Zm6.911-7.436a2.382 2.382 0 0 1-2.4-2.4 2.303 2.303 0 0 1 .322-1.2 2.411 2.411 0 0 1 3.278-.862c.356.21.653.506.862.862.215.363.326.778.321 1.2a2.4 2.4 0 0 1-1.183 2.079 2.302 2.302 0 0 1-1.2.321Zm2.992 7.436V6.004h3.937v11.999h-3.937Zm8.922-5.442c.01.012.095.15.253.414s.364.603.617 1.014a309.436 309.436 0 0 1 1.597 2.62c.247.411.529.876.845 1.394H29.96c-.27-.44-.516-.837-.736-1.192-.22-.355-.453-.738-.7-1.149-.248-.41-.493-.81-.736-1.2-.242-.389-.45-.73-.625-1.022a18.04 18.04 0 0 0-.363-.592 1.75 1.75 0 0 1-.287-.845c.016-.29.11-.57.27-.811.067-.113.191-.313.371-.6s.392-.628.634-1.022c.242-.395.488-.798.736-1.209l.7-1.157.736-1.2h4.326l-3.346 5.458a1.079 1.079 0 0 0-.17.541c.012.202.082.396.203.558Z"/><path fill="#1767CE" d="M38.128 7.486h3.87v10.515h1.776V7.486h3.855V5.998h-9.501v1.488ZM54.485 10.47a3.068 3.068 0 0 0-1.243-.955 4.34 4.34 0 0 0-1.715-.322 4.203 4.203 0 0 0-1.725.339c-.495.216-.937.54-1.293.946a4.142 4.142 0 0 0-.812 1.463 6.11 6.11 0 0 0-.279 1.901 5.12 5.12 0 0 0 .499 2.359c.321.637.84 1.153 1.48 1.47.749.354 1.572.524 2.4.5a8.26 8.26 0 0 0 1.192-.077c.33-.047.655-.124.972-.228a6.29 6.29 0 0 0 .913-.389l.118-1.302c-.214.08-.431.158-.651.237-.22.079-.448.15-.685.211a5.109 5.109 0 0 1-.727.136 6.574 6.574 0 0 1-.743.042 5.333 5.333 0 0 1-1.32-.144 2.162 2.162 0 0 1-.937-.49 2.136 2.136 0 0 1-.575-.938 4.28 4.28 0 0 1-.184-1.116h6.11c.082-.7.051-1.407-.094-2.096a3.952 3.952 0 0 0-.701-1.547Zm-4.26.405c.396-.24.854-.36 1.318-.346.465-.023.923.11 1.302.38.337.269.577.64.684 1.057.085.308.126.627.124.947h-4.446c.031-.338.103-.67.215-.99.144-.428.426-.797.803-1.047ZM62.81 9.413a6.117 6.117 0 0 0-.785-.16 6.642 6.642 0 0 0-.914-.06 4.092 4.092 0 0 0-1.606.322c-.509.215-.971.528-1.36.921-.416.424-.735.93-.939 1.488a5.695 5.695 0 0 0-.338 2.037 5.29 5.29 0 0 0 .43 2.223c.266.6.705 1.106 1.26 1.454a3.73 3.73 0 0 0 2.012.515 4.876 4.876 0 0 0 1.809-.355c.343-.14.667-.324.964-.547v.463c.006.38-.048.76-.16 1.124a2.044 2.044 0 0 1-.491.811 2.018 2.018 0 0 1-.862.49c-.422.116-.857.17-1.294.161a9.4 9.4 0 0 1-1.04-.059 7.376 7.376 0 0 1-1.073-.203 8.215 8.215 0 0 1-1.065-.363l.186 1.487c.31.127.63.231.955.313.343.086.69.151 1.04.195.37.045.743.068 1.116.067a5.452 5.452 0 0 0 2.417-.482 3.387 3.387 0 0 0 1.48-1.335c.34-.6.512-1.28.498-1.97V9.193l-1.653.426c-.191-.08-.387-.15-.586-.206Zm.313 6.77a5.34 5.34 0 0 1-.65.322c-.198.081-.402.146-.61.194a2.74 2.74 0 0 1-.616.068 2.94 2.94 0 0 1-1.463-.33 1.98 1.98 0 0 1-.862-.997 4.493 4.493 0 0 1-.279-1.716 4.47 4.47 0 0 1 .194-1.378c.111-.367.302-.704.559-.989.25-.264.556-.47.895-.6a3.263 3.263 0 0 1 1.21-.211c.266 0 .531.022.794.068.269.047.534.112.794.194.083.026.17.06.254.092v5.154c-.074.044-.15.09-.22.13ZM74.297 9.548a3.327 3.327 0 0 0-1.622-.355c-.491.001-.979.078-1.446.229-.481.153-.94.372-1.36.65-.164.108-.32.226-.474.347V9.21l-1.724.254V18h1.724v-6.42c.167-.098.339-.187.516-.266.237-.105.48-.198.727-.279.237-.077.48-.137.726-.177.232-.039.467-.059.702-.06.276-.006.55.037.811.127.216.078.407.209.558.38.156.187.266.407.322.643.072.299.106.606.1.913v5.14h1.725v-5.495a4.686 4.686 0 0 0-.32-1.877 2.217 2.217 0 0 0-.965-1.082ZM83.477 14.113a2.545 2.545 0 0 0-.592-.465 4.586 4.586 0 0 0-.71-.33c-.18-.056-.358-.115-.533-.177a9.4 9.4 0 0 0-.524-.17 10.94 10.94 0 0 1-.507-.16 3.717 3.717 0 0 1-.448-.186 2.945 2.945 0 0 1-.397-.253 1.108 1.108 0 0 1-.287-.322.812.812 0 0 1-.11-.422.876.876 0 0 1 .118-.465.962.962 0 0 1 .355-.33c.177-.097.368-.165.567-.203.247-.047.5-.07.752-.067a5.527 5.527 0 0 1 .887.076c.175.028.35.065.524.11.175.044.352.095.533.152.167.051.33.113.49.186l.118-1.37a8.04 8.04 0 0 0-.633-.236 6.214 6.214 0 0 0-.635-.17 5.075 5.075 0 0 0-.633-.092 7.644 7.644 0 0 0-.617-.026 5.572 5.572 0 0 0-1.387.161 3.486 3.486 0 0 0-1.09.473c-.303.2-.55.474-.719.795a2.415 2.415 0 0 0-.253 1.141c-.005.285.04.568.135.837.08.225.2.434.355.617.15.172.324.323.516.448.2.13.412.241.634.33a14.685 14.685 0 0 0 .786.262 40.99 40.99 0 0 1 .744.236c.118.04.234.076.347.11.15.054.297.119.439.194.124.066.24.146.347.237a.866.866 0 0 1 .295.668.843.843 0 0 1-.279.668 1.62 1.62 0 0 1-.727.346c-.313.07-.633.104-.955.102a4.762 4.762 0 0 1-.6-.043 8.597 8.597 0 0 1-.693-.118c-.242-.051-.49-.113-.744-.186a14.75 14.75 0 0 1-.769-.245l.068 1.437c.292.101.56.183.803.245.242.062.473.116.693.16.212.045.426.073.642.085.209.012.42.017.634.017.472.003.942-.046 1.403-.144a3.627 3.627 0 0 0 1.15-.448c.32-.195.584-.468.77-.794.193-.358.289-.76.278-1.167a2.37 2.37 0 0 0-.144-.87 1.974 1.974 0 0 0-.397-.634ZM92.563 9.726a3.633 3.633 0 0 0-2.02-.533 5.149 5.149 0 0 0-1.25.161 5.425 5.425 0 0 0-1.505.638V9.21l-1.725.27v12.071h1.725v-3.785l.034.015c.312.13.638.224.971.28.394.064.793.095 1.192.092a4.226 4.226 0 0 0 2.173-.558 4.014 4.014 0 0 0 1.521-1.614c.4-.8.594-1.685.567-2.578a5.261 5.261 0 0 0-.431-2.198 3.398 3.398 0 0 0-1.252-1.48Zm-.448 5.655a2.326 2.326 0 0 1-.972 1.065c-.476.25-1.009.372-1.546.355a4.81 4.81 0 0 1-1.809-.345V11.12c.022-.01.045-.024.067-.034.248-.113.479-.209.693-.288a3.472 3.472 0 0 1 1.2-.22 3.128 3.128 0 0 1 1.505.33c.408.222.727.577.905 1.006a4.33 4.33 0 0 1 .296 1.725 4.031 4.031 0 0 1-.339 1.74ZM99.874 9.32a3.319 3.319 0 0 0-.895.388c-.289.18-.555.393-.795.634-.04.04-.079.085-.118.127v-1.26l-1.725.254V18h1.725v-6.386a4.402 4.402 0 0 1 .921-.494c.175-.068.352-.127.533-.177a3.604 3.604 0 0 1 1.183-.127l.203-1.59a3.218 3.218 0 0 0-1.032.094ZM109.798 16.936a.773.773 0 0 1-.659-.27 1.453 1.453 0 0 1-.186-.896l.034-3.483a4.072 4.072 0 0 0-.136-1.082 2.652 2.652 0 0 0-.405-.862 2.283 2.283 0 0 0-.702-.626 3.59 3.59 0 0 0-1.023-.388 6.004 6.004 0 0 0-1.335-.136c-.356 0-.712.023-1.065.068a7.318 7.318 0 0 0-.989.194 8.26 8.26 0 0 0-.888.296l-.203 1.437a10.05 10.05 0 0 1 1.539-.422c.232-.045.466-.076.701-.093a9.38 9.38 0 0 1 .685-.026c.345-.007.689.033 1.023.119.243.06.467.183.651.355.163.167.279.374.338.6.072.278.106.566.101.854l-.002.424-1.976.133a5.248 5.248 0 0 0-1.961.44 2.815 2.815 0 0 0-1.158.938c-.25.366-.382.8-.38 1.243-.003.416.098.825.296 1.192.207.376.518.684.896.887.461.24.976.356 1.496.338.487.011.971-.069 1.428-.237a3.289 3.289 0 0 0 1.065-.676c.117-.112.228-.23.333-.354.033.175.095.343.183.498.151.259.382.46.659.575.306.123.634.183.964.177.101 0 .2-.003.296-.008.094-.006.187-.02.279-.043l.245-.059a1.34 1.34 0 0 0 .194-.059l.186-1.133a1.472 1.472 0 0 1-.287.068c-.079.01-.158.016-.237.017Zm-2.815-.76c-.183.144-.381.269-.591.371a2.676 2.676 0 0 1-.659.22 3.75 3.75 0 0 1-.719.068 1.905 1.905 0 0 1-.803-.152 1.11 1.11 0 0 1-.499-.432 1.27 1.27 0 0 1-.169-.667 1.282 1.282 0 0 1 .22-.795 1.29 1.29 0 0 1 .71-.423 5.147 5.147 0 0 1 1.319-.135h1.48l-.008 1.678c-.085.097-.18.186-.281.266ZM104.397 7.841a2.29 2.29 0 0 0 1.023.22c.362.007.721-.071 1.048-.228.294-.144.543-.366.718-.643.181-.297.272-.64.262-.989a1.73 1.73 0 0 0-.558-1.352 2.053 2.053 0 0 0-1.437-.507 2.442 2.442 0 0 0-1.022.21 1.687 1.687 0 0 0-.736.635 1.87 1.87 0 0 0-.27 1.031c-.012.351.079.698.262.997.174.27.42.487.71.626Zm.27-2.434a1.094 1.094 0 0 1 .786-.27c.21-.01.418.04.601.143.147.09.265.223.338.38.075.17.113.355.11.541.003.187-.038.373-.119.541a.88.88 0 0 1-.346.372 1.168 1.168 0 0 1-.6.135 1.272 1.272 0 0 1-.575-.118.766.766 0 0 1-.355-.355 1.28 1.28 0 0 1-.119-.575 1.064 1.064 0 0 1 .279-.794ZM117.135 18.001h2.231l-4.1-4.62 4.016-4.002h-2.113l-2.893 3.179h-.624v-7.32l-1.724.253v12.51h1.724V13.86h.028l3.455 4.142Z"/></svg>
